!!!COM: Palestrina, Giovanni Perluigi da
!!!OPR: Missa Regina coeli (1601)
!!!OMD: Credo
!!!OTL: Crucifixus
**kern	**kern	**kern
*Itenor	*Icalto	*Icant
!Tenor	!Altus	!Cantus
*clefGv2	*clefG2	*clefG2
*k[b-]	*k[b-]	*k[b-]
*F:ion	*F:ion	*F:ion
*M4/2	*M4/2	*M4/2
=86	=86	=86
0r	1.f	0r
.	2c	.
=87	=87	=87
0r	2d	2r
.	2e	1cc
.	2.f	.
.	.	2f
.	4d	.
=88	=88	=88
0r	2e-	2g
.	2d	2a
.	4G	2.b-
.	4A	.
.	4B-	.
.	4c	4a
=89	=89	=89
1r	4d	2b-
.	4e	.
.	1f	2a
[1c	.	1g
.	4e	.
.	4d	.
=90	=90	=90
2c]	2e	2g
2F	2f	2a
2G	2d	2b-
2A	2c	4a
.	.	4g
=91	=91	=91
2.B-	1.d	4f
.	.	4e
.	.	2f
4A	.	.
2B-	.	4g
.	.	4f
2A	2c	[2f
=92	=92	=92
1G	1B-	2f]
.	.	2e
[1F	2c	4f
.	.	4g
.	2F	4a
.	.	4b-
=93	=93	=93
1F]	2A	2.cc
.	2c	.
.	.	4b-
2r	2d	1a
2F	[2c	.
=94	=94	=94
2A	4c]	1r
.	4d	.
2c	2e	.
[1d	2.f	2r
.	.	2f
.	4e	.
=95	=95	=95
2d]	4f	2a
.	4d	.
2c	2e	2cc
2.B-	1f	[1dd
4A	.	.
=96	=96	=96
4B-	2r	2dd]
4G	.	.
2A	1f	2cc
1G	.	4b-
.	.	4a
.	2e	4b-
.	.	4g
=97	=97	=97
1F	2d	1a
.	2c	.
[1c	1e	[1g
=98	=98	=98
2c]	1d	1g]
2B-	.	.
2A	2.c	2r
2F	.	[2cc
.	4d	.
=99	=99	=99
2G	2e	2cc]
2G	2.d	2b-
1F	.	2a
.	4c	.
.	[2f	2f
=100	=100	=100
1c	2f]	2g
.	2e	2g
2d	1f	[1f
[2B-	.	.
=101	=101	=101
2B-]	2r	1f]
2A	1f	.
1B-	.	2r
.	2d	2b-
=102	=102	=102
1r	2e	2g
.	2f	2a
2r	2g	2b-
[2F	2c	2cc
=103	=103	=103
2F]	2d	4f
.	.	4g
2D	2f	4a
.	.	4f
2E	2e	2g
2F	[2d	2a
=104	=104	=104
2G	2d]	2b-
2C	4c	4a
.	4B-	4g
2D	1A	1f
[2F	.	.
=105	=105	=105
2F]	2r	1g
2E	1c	.
1F	.	2a
.	2A	2f
=106	=106	=106
0r	2B-	2d
.	2c	2e
.	2d	2f
.	2G	2g
=107	=107	=107
1r	4A	4c
.	4B-	4d
.	4c	4e
.	4d	4f
2r	4e	4g
.	4c	4a
[2B-	4d	4b-
.	4e	4cc
=108	=108	=108
2B-]	2f	2dd
2G	2.g	2b-
2A	.	2cc
.	4f	.
2B-	4f	[2dd
.	8e	.
.	8d	.
=109	=109	=109
2c	2e	4dd]
.	.	4cc
2F	2f	1cc
1G	2.d	.
.	.	2b-
.	4c	.
=110	=110	=110
2r	4d	1a
.	4e	.
2F	1f	.
1c	.	1g
.	2e	.
=111	=111	=111
1d	2.f	2r
.	.	2f
.	4d	.
2c	2e	1cc
2A	2f	.
=112	=112	=112
2.B-	1d	1dd
4G	.	.
2A	1r	2cc
2F	.	2a
=113	=113	=113
2G	0r	2.b-
2B-	.	.
.	.	4g
2c	.	2a
[2d	.	4f
.	.	4g
=114	=114	=114
2d]	1F	4a
.	.	4b-
4c	.	2.cc
4B-	.	.
2A	1c	.
.	.	4b-
2F	.	[2a
=115	=115	=115
1B-	1d	2a]
.	.	2g
1A	2c	[1a
.	2e	.
=116	=116	=116
2r	2.f	0a]
2d	.	.
.	4d	.
2c	2e	.
2A	2c	.
=117	=117	=117
2.B-	1d	2r
.	.	2dd
4G	.	.
2A	1r	2cc
2F	.	2a
=118	=118	=118
1G	2r	2.b-
.	2g	.
.	.	4g
1d	2f	2a
.	2d	2f
=119	=119	=119
2c	2.e	2g
2A	.	2a
.	4c	.
2.B-	1d	2f
.	.	2g
4G	.	.
=120	=120	=120
2A	2.c	2.e
2.c	.	.
.	4d	4f
.	4e	4g
4A	4f	4a
2B-	4d	4f
.	4e	4g
=121	=121	=121
1A	4f	4a
.	4e	4b-
.	4e	1cc
.	8d	.
.	8c	.
1G	1d	.
.	.	2b
=122	=122	=122
0c	1.e	2cc
.	.	2c
.	.	2.g
.	2c	.
.	.	4g
=123	=123	=123
2r	1c	2g
2F	.	1a
2.c	1r	.
.	.	[2g
4c	.	.
=124	=124	=124
2c	0r	2g]
2d	.	2f
2c	.	2e
2B-	.	4d
.	.	4e
=125	=125	=125
2.A	2r	4f
.	.	4g
.	2F	2.a
4G	.	.
2F	2.c	.
.	.	4f
2E	.	2g
.	4c	.
=126	=126	=126
1.F	2c	1.a
.	2d	.
.	2c	.
2G	2B-	2g
=127	=127	=127
1D	2A	4f
.	.	4g
.	4F	4a
.	4G	4b-
1r	4A	4cc
.	4B-	4dd
.	4c	[2cc
.	4d	.
=128	=128	=128
2r	2e	4cc]
.	.	4b-
1F	2f	4a
.	.	4g
.	2c	2.a
2D	[2d	.
.	.	4g
=129	=129	=129
2F	4d]	2.f
.	4c	.
2F	1c	.
.	.	4e
1G	.	1d
.	2B	.
=130	=130	=130
2C	2r	1e
2C	1c	.
2.F	.	1r
.	2A	.
4G	.	.
=131	=131	=131
2A	2c	2r
2F	2c	1f
[1B-	[1d	.
.	.	2d
=132	=132	=132
2B-]	2d]	2f
2A	2c	2f
4G	2e-	1g
4A	.	.
4B-	[2d	.
4G	.	.
=133	=133	=133
1A	4d]	2c
.	4c	.
.	1c	2c
1G	.	2d
.	2B-	2d
=134	=134	=134
0r	4A	4c
.	4B-	4d
.	4c	4e
.	4A	4f
.	4B-	4g
.	4c	4a
.	4d	4b-
.	4e	4g
=135	=135	=135
1r	2f	2a
.	2.g	2.b-
[1B-	.	.
.	4f	4a
.	[2f	2f
=136	=136	=136
2B-]	2f]	2g
2c	2e	2g
1d	1f	[1f
=137	=137	=137
2B-	2r	1f]
2d	1B-	.
2d	.	2r
2A	2c	[2f
=138	=138	=138
1B-	1d	2f]
.	.	2g
1F	2c	1a
.	2c	.
=139	=139	=139
0r	2B	2g
.	2c	2g
.	2A	2f
.	2G	2g
=140	=140	=140
1.F	4A	1c
.	4B-	.
.	1c	.
.	.	1d
2G	2B	.
=141	=141	=141
1A	1c	4c
.	.	4d
.	.	4e
.	.	4f
2G	2r	4g
.	.	4a
2G	2B-	4b-
.	.	4g
=142	=142	=142
1.F	1c	2a
.	.	1cc
.	1d	.
2G	.	2b-
=143	=143	=143
4C	2c	2a
4D	.	.
4E	2c	1g
4F	.	.
2G	2B	.
[2A	2c	2e
=144	=144	=144
2A]	4F	1a
.	4G	.
2F	4A	.
.	4B-	.
2r	4c	[1g
.	4d	.
2c	4e	.
.	4c	.
=145	=145	=145
2B	2d	1g]
2c	2e	.
1F	2c	[1f
.	[2d	.
=146	=146	=146
0G	2d]	2f]
.	1c	2e
.	.	1d
.	2B	.
=147	=147	=147
0C	0c	0e
*-	*-	*-
!!!CDT: 1525/^1526/-1594/2/2
!!!OCY: Italia
!!!AGN: Mass (Paraphrase)
!!!AST: renaissance, vocal
!!!ASW: Antiphon
!!!PWK: Masses, Book 12
!!!RNB: Cadence finals: C
!!!YOR: Le Opere Complete, v. 29, p. 1
!!!YOO: Rome, Italy: Fratelli Scalera
!!!END: 1992//
!!!EED: John Miller
!!!YEC: Copyright 2000, John Miller
!!!YEN: United States of America
!!!YEM: Rights to all derivative electronic formats reserved.
!!!YEM: Refer to licensing agreement for further details.
!!!YEM: This file must be accompanied by the licensing agreement.
!!!YEM: A copy of the licensing agreement may be found at http://www.music-cog.ohio-state.edu/HumdrumDatabases/Palestrina/license.txt
!!!EMD: converted to Humdrum by Bret Aarden
